assets/symbols/mulberry/measuring_jug.svg

<svg height="850.394" viewBox="0 0 850.394 850.394" width="850.394" xmlns="http://www.w3.org/2000/svg"><path d="m643.09 154.56-3.35 60.3-17.27 310.85-7.17 128.98s-3.14 61.359-35.7 84.939c-35.69 25.851-81.24 50.471-185.87 50.471l.47-.1c-89.64-3.14-131.31-26.1-164.47-50.11-32.56-23.58-35.7-84.939-35.7-84.939l-19.94-344.68s2.42-49.24-26.6-89.87c-29.03-40.62-55.64-67.71-55.64-67.71l82.03-39.71c40.26-28.43 124.61-47.99 222.14-47.99 136.59 0 247.32 38.37 247.32 85.71 0 1.289-.08 2.579-.25 3.859z" fill="#ffeec8"/><g fill="none"><g stroke="#000"><path d="m643.16 153.3-.07 1.26-3.35 60.3-17.27 310.85-7.17 128.98s-3.14 61.359-35.7 84.939c-35.69 25.851-81.24 50.471-185.87 50.471l.47-.1c-89.64-3.14-131.31-26.1-164.47-50.11-32.56-23.58-35.7-84.939-35.7-84.939l-19.94-344.68s2.42-49.24-26.6-89.87c-29.03-40.62-55.64-67.71-55.64-67.71l82.03-39.71c40.26-28.43 124.61-47.99 222.14-47.99 136.59 0 247.32 38.37 247.32 85.71 0 1.29-.08 2.58-.25 3.86-5.82 45.54-114.21 81.84-247.07 81.84-104.75 0-188.53-29.46-209.65-50.71-6.99-7.03-83.63-33-83.63-33" stroke-width="22.158"/><path d="m639.74 214.86h55.92s55.399 12.01 61.399 61.4-8.77 141.72-33.699 176.8c-24.931 35.091-53.99 59.94-84.94 68.32-6.63 1.811-11.85 3.22-15.95 4.33h-.01" stroke-width="36.93"/><path d="m410.68 421.06v347.76m-46.08-358.46h92.33m-92.49 122.8h92.33" stroke-width="22.158"/><path d="m377.29 446.52h67.7m-67.58 25.7h67.7m-68.06 24.58h67.71" stroke-width="14.772"/><path d="m456.92 654.61h-92.33" stroke-width="22.158"/><path d="m444.24 618.45h-67.71m67.58-25.7h-67.7m68.06-24.58h-67.71m66.58 172.47h-67.71m67.58-25.7h-67.7m68.06-24.58h-67.71" stroke-width="14.772"/></g><path d="m0 0h850.394v850.394h-850.394z"/></g></svg>

<svg xmlns="http://www.w3.org/2000/svg" width="850.394" height="850.394" viewBox="0 0 850.394 850.394" overflow="visible"><path d="M643.09 154.56l-3.35 60.3-17.27 310.85-7.17 128.98s-3.14 61.359-35.7 84.939C543.91 765.48 498.36 790.1 393.73 790.1l.47-.1c-89.64-3.14-131.31-26.1-164.47-50.11-32.56-23.58-35.7-84.939-35.7-84.939l-19.94-344.68s2.42-49.24-26.6-89.87c-29.03-40.62-55.64-67.71-55.64-67.71l82.03-39.71c40.26-28.43 124.61-47.99 222.14-47.99 136.59 0 247.32 38.37 247.32 85.71 0 1.289-.08 2.579-.25 3.859z" fill="#ffeec8"/><g fill="none" stroke="#000"><path d="M643.16 153.3l-.07 1.26-3.35 60.3-17.27 310.85-7.17 128.98s-3.14 61.359-35.7 84.939C543.91 765.48 498.36 790.1 393.73 790.1l.47-.1c-89.64-3.14-131.31-26.1-164.47-50.11-32.56-23.58-35.7-84.939-35.7-84.939l-19.94-344.68s2.42-49.24-26.6-89.87c-29.03-40.62-55.64-67.71-55.64-67.71l82.03-39.71c40.26-28.43 124.61-47.99 222.14-47.99 136.59 0 247.32 38.37 247.32 85.71 0 1.29-.08 2.58-.25 3.86-5.82 45.54-114.21 81.84-247.07 81.84-104.75 0-188.53-29.46-209.65-50.71-6.99-7.03-83.63-33-83.63-33" stroke-width="22.158"/><path d="M639.74 214.86h55.92s55.399 12.01 61.399 61.4-8.77 141.72-33.699 176.8c-24.931 35.091-53.99 59.94-84.94 68.32-6.63 1.811-11.85 3.22-15.95 4.33h-.01" stroke-width="36.93"/><path stroke-width="22.158" d="M410.68 421.06V768.82M364.6 410.36h92.33M364.44 533.16H456.77"/><path stroke-width="14.772" d="M377.29 446.52h67.7M377.41 472.22h67.7M377.05 496.8H444.76"/><path stroke-width="22.158" d="M456.92 654.61H364.59"/><path stroke-width="14.772" d="M444.24 618.45H376.53M444.11 592.75h-67.7M444.47 568.17H376.76M443.34 740.64h-67.71M443.21 714.94h-67.7M443.57 690.36H375.86"/></g><path fill="none" d="M0 0h850.394v850.394H0z"/></svg>
